dist/assets/img/repeat-action.svg

<svg width="19" height="21" viewBox="0 0 19 21" fill="none" xmlns="http://www.w3.org/2000/svg">
<path d="M0.77888 14.1964C0.864213 14.459 1.14629 14.6027 1.40892 14.5174C1.67154 14.4321 1.81527 14.15 1.72994 13.8874L0.77888 14.1964ZM17.3792 14.0419L16.9037 13.8874L17.3792 14.0419ZM14.0419 17.3792L13.8874 16.9037L14.0419 17.3792ZM17.8547 6.51642C17.7694 6.2538 17.4873 6.11007 17.2247 6.1954C16.9621 6.28074 16.8183 6.56281 16.9037 6.82544L17.8547 6.51642ZM4.59173 3.33361L4.43722 2.85808L4.59173 3.33361ZM1.25441 6.67093L0.77888 6.51642H0.77888L1.25441 6.67093ZM13.0491 0.646447C12.8538 0.451184 12.5372 0.451184 12.342 0.646447C12.1467 0.841709 12.1467 1.15829 12.342 1.35355L13.0491 0.646447ZM13.9697 2.27423L14.3233 1.92068V1.92068L13.9697 2.27423ZM13.9002 3.80798L13.5801 3.42387L13.9002 3.80798ZM12.1155 4.64434C11.9034 4.82112 11.8747 5.13641 12.0515 5.34854C12.2283 5.56068 12.5436 5.58934 12.7557 5.41256L12.1155 4.64434ZM6.55156 15.908C6.74682 15.7127 6.74682 15.3961 6.55156 15.2009C6.35629 15.0056 6.03971 15.0056 5.84445 15.2009L6.55156 15.908ZM4.92377 16.8286L5.27732 17.1822L4.92377 16.8286ZM4.99334 18.3624L4.67325 18.7465L4.99334 18.3624ZM6.13781 19.967C6.34995 20.1437 6.66523 20.1151 6.84201 19.9029C7.01879 19.6908 6.99013 19.3755 6.77799 19.1987L6.13781 19.967ZM4.63333 17.3924L4.14007 17.3106L4.63333 17.3924ZM10.3564 17.1336H8.2772V18.1336H10.3564V17.1336ZM0.5 10.3564C0.5 12.2525 0.493831 13.3191 0.77888 14.1964L1.72994 13.8874C1.50617 13.1987 1.5 12.3303 1.5 10.3564H0.5ZM17.1336 10.3564C17.1336 12.3303 17.1274 13.1987 16.9037 13.8874L17.8547 14.1964C18.1398 13.3191 18.1336 12.2525 18.1336 10.3564H17.1336ZM10.3564 18.1336C12.2525 18.1336 13.3191 18.1398 14.1964 17.8547L13.8874 16.9037C13.1987 17.1274 12.3303 17.1336 10.3564 17.1336V18.1336ZM16.9037 13.8874C16.439 15.3176 15.3176 16.439 13.8874 16.9037L14.1964 17.8547C15.9311 17.2911 17.2911 15.9311 17.8547 14.1964L16.9037 13.8874ZM18.1336 10.3564C18.1336 8.46033 18.1398 7.39371 17.8547 6.51642L16.9037 6.82544C17.1274 7.51413 17.1336 8.3825 17.1336 10.3564H18.1336ZM8.2772 2.5792C6.38113 2.5792 5.31451 2.57303 4.43722 2.85808L4.74624 3.80914C5.43493 3.58537 6.3033 3.5792 8.2772 3.5792V2.5792ZM1.5 10.3564C1.5 8.3825 1.50617 7.51413 1.72994 6.82544L0.77888 6.51642C0.493831 7.39371 0.5 8.46033 0.5 10.3564H1.5ZM4.43722 2.85808C2.70253 3.42172 1.34251 4.78174 0.77888 6.51642L1.72994 6.82544C2.19465 5.39519 3.31599 4.27385 4.74624 3.80914L4.43722 2.85808ZM12.342 1.35355L13.6162 2.62779L14.3233 1.92068L13.0491 0.646447L12.342 1.35355ZM13.5801 3.42387L12.1155 4.64434L12.7557 5.41256L14.2203 4.19209L13.5801 3.42387ZM5.84445 15.2009L4.57022 16.4751L5.27732 17.1822L6.55156 15.908L5.84445 15.2009ZM4.67325 18.7465L6.13781 19.967L6.77799 19.1987L5.31343 17.9783L4.67325 18.7465ZM8.2772 3.5792H13.995V2.5792H8.2772V3.5792ZM13.6162 2.62779C13.7315 2.74307 13.7831 2.89516 13.773 3.04569L14.7708 3.11271C14.7993 2.68778 14.652 2.24936 14.3233 1.92068L13.6162 2.62779ZM13.773 3.04569C13.7634 3.18804 13.6989 3.32488 13.5801 3.42387L14.2203 4.19209C14.5584 3.91032 14.7437 3.51552 14.7708 3.11271L13.773 3.04569ZM13.995 3.5792H14.2719V2.5792H13.995V3.5792ZM4.57022 16.4751C4.334 16.7113 4.19068 17.0054 4.14007 17.3106L5.1266 17.4742C5.14423 17.3678 5.19363 17.2659 5.27732 17.1822L4.57022 16.4751ZM4.14007 17.3106C4.05436 17.8275 4.23461 18.381 4.67325 18.7465L5.31343 17.9783C5.16038 17.8507 5.09611 17.6581 5.1266 17.4742L4.14007 17.3106ZM8.2772 17.1336C6.33889 17.1336 5.46676 17.1279 4.78176 16.915L4.4849 17.8699C5.35153 18.1393 6.41378 18.1336 8.2772 18.1336V17.1336Z" fill="#72BF44"/>
</svg>

<svg width="19" height="21" fill="none" xmlns="http://www.w3.org/2000/svg"><path d="M.779 14.196a.5.5 0 0 0 .95-.309l-.95.31Zm16.6-.154-.475-.155.475.155Zm-3.337 3.337-.155-.475.155.475Zm3.813-10.863a.5.5 0 1 0-.951.31l.95-.31ZM4.592 3.334l-.155-.476.155.476ZM1.254 6.67.78 6.516l.475.155ZM13.05.646a.5.5 0 1 0-.707.708l.707-.708Zm.92 1.628.354-.353-.353.353Zm-.07 1.534-.32-.384.32.384Zm-1.784.836a.5.5 0 0 0 .64.769l-.64-.769ZM6.552 15.908a.5.5 0 1 0-.708-.707l.708.707Zm-1.628.92.353.354-.353-.353Zm.07 1.534-.32.385.32-.385Zm1.144 1.605a.5.5 0 0 0 .64-.768l-.64.768Zm-1.505-2.575-.493-.081.493.081Zm5.723-.258H8.277v1h2.08v-1ZM.5 10.356c0 1.896-.006 2.963.279 3.84l.95-.309c-.223-.688-.229-1.557-.229-3.53h-1Zm16.634 0c0 1.974-.007 2.843-.23 3.531l.95.31c.286-.878.28-1.944.28-3.84h-1Zm-6.778 7.778c1.896 0 2.963.006 3.84-.28l-.309-.95c-.688.223-1.557.23-3.53.23v1Zm6.548-4.247a4.698 4.698 0 0 1-3.017 3.017l.31.95a5.698 5.698 0 0 0 3.658-3.658l-.951-.309Zm1.23-3.53c0-1.897.006-2.963-.28-3.84l-.95.308c.223.69.23 1.558.23 3.531h1ZM8.277 2.578c-1.896 0-2.962-.006-3.84.28l.31.95c.688-.224 1.556-.23 3.53-.23v-1ZM1.5 10.356c0-1.973.006-2.842.23-3.53l-.951-.31C.494 7.394.5 8.46.5 10.356h1Zm2.937-7.498A5.698 5.698 0 0 0 .78 6.516l.95.31a4.698 4.698 0 0 1 3.017-3.017l-.309-.95Zm7.905-1.504 1.274 1.274.707-.707L13.05.646l-.707.708Zm1.238 2.07-1.464 1.22.64.769 1.464-1.22-.64-.77ZM5.844 15.2 4.57 16.475l.707.707 1.275-1.274-.708-.707Zm-1.17 3.546 1.464 1.22.64-.768-1.465-1.22-.64.768ZM8.276 3.579h5.718v-1H8.277v1Zm5.34-.951a.536.536 0 0 1 .156.418l.998.067a1.536 1.536 0 0 0-.448-1.192l-.707.707Zm.156.418a.535.535 0 0 1-.193.378l.64.768a1.53 1.53 0 0 0 .55-1.08l-.997-.066Zm.222.533h.277v-1h-.277v1ZM4.57 16.475c-.236.236-.38.53-.43.836l.987.163a.533.533 0 0 1 .15-.292l-.707-.707Zm-.43.836a1.54 1.54 0 0 0 .533 1.436l.64-.769a.538.538 0 0 1-.186-.504l-.987-.163Zm4.137-.177c-1.938 0-2.81-.006-3.495-.219l-.297.955c.867.27 1.929.264 3.792.264v-1Z" fill="#72BF44"/></svg>
